X:1
T:Oriel, 87.87.87
T:Caspar Ett, Cantica Sacra, 1840
T:Oriel, 87.87.87
T:Public Domain
C:Caspar Ett, Cantica Sacra, 1840
Z:Public Domain
%%score ( 1 2 ) ( 3 4 )
L:1/8
M:4/4
K:A
V:1 treble 
V:2 treble 
V:3 bass 
V:4 bass 
V:1
 [CA]2 [FA]2 [EA]2 [CA]2 | [EB]2 [Ec]2 (FE) [Ec]2 | [Ec]2 [Fc]2 [GB]2 [FA]2 | [EG]2 [^DF]2 E4 | %4
 [EA]2 [FA]2 [EA]2 [CA]2 | [EB]2 [Ec]2 [Fd]2 [Ec]2 | [Ec]2 (EF) [GB]2 [FA]2 | [EG]2 [^DF]2 E4 | %8
 [B,G]2 [^B,G]2 [Cc]2 [^DG]2 | [EG]2 [CA]2 (ED) [CA]2 | [Fd]2 [Fd]2 [Ec]2 [FB]2 | %11
 [EA]2 [EG]2 [EA]4 |] %12
V:2
 x8 | x4 e2 x2 | x8 | x4 E4 | x8 | x8 | x2 c2 x4 | x4 E4 | x8 | x4 B2 x2 | x8 | x8 |] %12
V:3
 [A,,A,]2 [D,A,]2 [C,A,]2 [F,A,]2 | [E,G,]2 [C,A,]2 (A,G,) [A,,A,]2 | %2
 [A,C]2 [A,^D]2 [G,E]2 [A,C]2 | z2 z A, [E,G,]4 | [C,A,]2 [D,A,]2 [C,A,]2 [F,A,]2 | %5
 [E,G,]2 A,2 [D,A,]2 [A,,A,]2 | (A,B,)(C^D) [G,E]2 [A,C]2 | z2 z A, [E,G,]4 | %8
 [E,G,]2 [^D,F,]2 [C,E,]2 [^B,,G,]2 | [C,C]2 [F,A,]2 [E,G,]2 [F,A,]2 | %10
 ([D,F,][E,G,])([F,A,][G,B,]) [A,C]2 [D,D]2 | [E,C]2 [E,B,]2 [A,,C]4 |] %12
V:4
 x8 | x4 B,,2 x2 | x8 | B,3 B,,2 x3 | x8 | x2 A,2 x4 | A,2 A,2 x4 | x2 B,,2 x4 | x8 | x8 | x8 | %11
 x8 |] %12

